X:1
T:Title
%%score { 1 | ( 2 3 ) }
L:1/8
M:6/8
K:A
V:1 treble nm="Grand Piano"
V:2 bass 
V:3 bass 
V:1
 z3 z2[Q:1/4=95] c | c2 c ABc | [Fd]2 [Fd] [FB]2 [FB] | A2 A GAB |[M:5/8] A-A- A3 |[M:1/8] c | %6
[M:3/4] c2 cA Bc | d2 d [FB]2 [FB] | A2 AG A[DEB] |[M:5/8] [CEA]-[CEA]- [CEA]3 |[M:1/8] [Ae] | %11
[M:3/4] [Ge]2 [GB][GB] [Ac][Bd] | [ce]2 [ce] [Ac]2 [Ae] | [Ge]2 [GB][GB] [Ac][Bd] | %14
[M:5/8] c-c- c3 |[M:1/8] c |[M:3/4] c2 cA Bc | d2 d [FB]2 [FB] | A2 AG A[DEB] | %19
[M:5/8] [CEA]-[CEA]- [CEA]3 |] %20
V:2
 z3 z2 [A,CE] | [A,CE]2 [A,CE] [F,CF]2 [F,A,F] | [B,,B,]2 [B,,B,] [D,B,]2 [D,B,] | %3
 [E,CE]2 [E,CE] B,C[E,DE] |[M:5/8][K:treble] [A,CE]-[A,CE]- [A,CE]3 |[M:1/8] [A,CE] | %6
[M:3/4] [A,CE]2 [A,CE]C [DG][^A,E=G] | [B,DF]2 [B,DF][K:bass] [D,D]2 [D,D] | [E,CE]2 [E,CE]B, CE, | %9
[M:5/8] A,,-A,,- A,,3 |[M:1/8] [A,C] |[M:3/4] [E,B,]2 [E,E] [E,E]2 [E,E] | %12
 [A,E]2 [A,E] [A,E]2 [A,C] | [E,B,]2 [E,E] [E,E]2 [E,E] |[M:5/8][K:treble] [A,EA]-[A,EA]- [A,EA]3 | %15
[M:1/8] [A,CE] |[M:3/4] [A,CE]2 [A,CE]C [DG][B,E=G] | [B,DF]2 [B,DF][K:bass] [D,D]2 [D,D] | %18
 [E,CE]2 [E,CE]B, CE, |[M:5/8] A,,-A,,- A,,3 |] %20
V:3
 x6 | x6 | x6 | z3 .[E,E]3 |[M:5/8][K:treble] x5 |[M:1/8] x |[M:3/4] z2 z .A,3 | x3[K:bass] x3 | %8
 z2 z .[E,E]3 |[M:5/8] x5 |[M:1/8] x |[M:3/4] x6 | x6 | x6 |[M:5/8][K:treble] x5 |[M:1/8] x | %16
[M:3/4] z2 z .A,3 | x3[K:bass] x3 | z2 z .[E,E]3 |[M:5/8] x5 |] %20

